!!!COM: Bach, Johann Sebastian
!!!OTA: Das wohltemperirte Clavier
!!!OPR: Das wohltemperierte Klavier
!!!OTL: Fuga 12, Vol. 2
!!!XEN: The Well-Tempered Clavier, Volume 2, Fugue 12.
!!!ONB: F minor, 3-part
!!!SCT: BWV 881b
!!!YEC: Copyright 1994, David Huron
!!!YEM: Rights to all derivative electronic formats reserved.
**kern	**kern	**kern
*staff2	*staff1	*staff1
*clefF4	*clefG2	*clefG2
*k[b-e-a-d-]	*k[b-e-a-d-]	*k[b-e-a-d-]
*M2/4	*M2/4	*M2/4
*f:	*f:	*f:
*MM84	*MM84	*MM84
8r	8r	8cc
=1	=1	=1
2r	2r	8f
.	.	8f
.	.	8f
.	.	16dd-
.	.	16b-
=2	=2	=2
2r	2r	8en
.	.	8e
.	.	16e
.	.	16f
.	.	16g
.	.	16a-
=3	=3	=3
2r	2r	16b-
.	.	16a-
.	.	16g
.	.	16a-
.	.	16b-
.	.	16dd-
.	.	16cc
.	.	16b-
=4	=4	=4
2r	4r	16a-
.	.	16g
.	.	16f
.	.	16g
.	8r	16a-
.	.	16b-
.	8f	16cc
.	.	16ddn
=5	=5	=5
2r	8c	16ee-
.	.	16ddn
.	8c	16cc
.	.	16dd
.	8c	16ee-
.	.	16gg
.	16a-	16ff
.	16f	16ee-
=6	=6	=6
2r	8Bn	16ddn
.	.	16cc
.	8B	16bn
.	.	16an
.	16B	16g
.	16c	16a
.	16dn	16b
.	16e-	16cc
=7	=7	=7
2r	16f	8ddn
.	16e-	.
.	16dn	8ff
.	16e-	.
.	16f	8aa-
.	16a-	.
.	16g	8bn
.	16f	.
=8	=8	=8
2r	16e-	8cc
.	16dn	.
.	16c	8ee-
.	16d	.
.	16e-	8gg
.	16f	.
.	16g	8ccc
.	16an	.
=9	=9	=9
2r	16b-	8dd-
.	16a-	.
.	16g	8ccc
.	16f	.
.	16g	8bb-
.	16b-	.
.	16a-	8dd-
.	16g	.
=10	=10	=10
2r	16a-	8cc
.	16b-	.
.	16cc	8ee-
.	16b-	.
.	16a-	8aa-
.	16g	.
.	16f	8cc
.	16e-	.
=11	=11	=11
4r	16dn	8b-
.	16f	.
.	16en	8aa-
.	16d	.
8r	16e	8gg
.	16g	.
8c	16f	8b-
.	16e	.
=12	=12	=12
8F	8f	16a-
.	.	16cc
8F	8r	16ff
.	.	16ee-
8F	16r	[4dd-
.	16cc	.
16d-	16b-	.
16B-	16a-	.
=13	=13	=13
8En	4g	16dd-]
.	.	16cc
8E	.	16b-
.	.	16a-
16E	16r	[4g
16F	16f	.
16G	16en	.
16A-	16dn	.
=14	=14	=14
16B-	4.en	8g]
16A-	.	.
16G	.	8dd-
16A-	.	.
16B-	.	[4cc
16d-	.	.
16c	8e	.
16B-	.	.
=15	=15	=15
16A-	[4f	8cc]
16G	.	.
16F	.	8dd-
16G	.	.
16A-	16f]	[4cc
16c	16a-	.
16B-	16g	.
16A-	16f	.
=16	=16	=16
16G	16en	8cc]
16F	16g	.
16En	[8b-	8dd-
16F	.	.
16G	16b-]	[4cc
16B-	16g	.
16A-	16f	.
16G	16e	.
=17	=17	=17
16F	8a-	8cc]
16A-	.	.
16c	8a-	8cc
16f	.	.
16c	[4a-	8cc
16A-	.	.
16F	.	8aa-
16A-	.	.
=18	=18	=18
8D-	2a-]	16b-
.	.	16cc
8F	.	16dd-
.	.	16cc
8D-	.	16b-
.	.	16cc
8BB-	.	16dd-
.	.	16cc
=19	=19	=19
16E-	8g	8b-
16G	.	.
16B-	8g	8b-
16e-	.	.
16B-	[4g	8b-
16G	.	.
16E-	.	8gg
16G	.	.
=20	=20	=20
8C	2g]	16a-
.	.	16b-
8E-	.	16cc
.	.	16b-
8C	.	16a-
.	.	16b-
8AA-	.	16cc
.	.	16b-
=21	=21	=21
16D-	8f	8a-
16E-	.	.
16F	8f	8a-
16E-	.	.
16D-	4f	8a-
16C	.	.
16BB-	.	[8dd-
16AA-	.	.
=22	=22	=22
8GG	8e-	16dd-]
.	.	16f
8BB-	8r	16g
.	.	16a-
8GG	4r	16b-
.	.	16cc
8EE-	.	16dd-
.	.	16b-
=23	=23	=23
8AA-	2r	16cc
.	.	16dd-
8GG	.	16b-
.	.	16cc
8FF	.	16dd-
.	.	16cc
8Dn	.	16b-
.	.	16a-
=24	=24	=24
8E-	2r	16g
.	.	16a-
8EE-	.	16b-
.	.	16g
16r	.	8e-
16d-	.	.
16c	.	8ee-
16B-	.	.
=25	=25	=25
16c	2r	8a-
16e-	.	.
16c	.	8a-
16A-	.	.
16F	.	8a-
16e-	.	.
16d-	.	16ff
16c	.	16dd-
=26	=26	=26
16B-	2r	8g
16d-	.	.
16B-	.	8g
16G	.	.
16E-	.	16g
16c	.	16a-
16B-	.	16b-
16A-	.	16cc
=27	=27	=27
16G	2r	16dd-
16A-	.	16cc
16G	.	16b-
16F	.	16cc
16E-	.	16dd-
16D-	.	16ff
16C	.	16ee-
16BB-	.	16dd-
=28	=28	=28
8AA-	4r	16cc
.	.	16b-
8A-	.	16a-
.	.	16g
8G	8r	16a-
.	.	16b-
8F	8a-	16cc
.	.	16ddn
=29	=29	=29
16c	8e-	4.ee-
16B-	.	.
16c	8e-	.
16d-	.	.
16c	8e-	.
16B-	.	.
16A-	16cc	8ee-
16G	16a-	.
=30	=30	=30
4F	8dn	16aa-
.	.	16gg
.	8d	16aa-
.	.	16bb-
[4B-	16d	16aa-
.	16e-	16gg
.	16f	16ff
.	16g	16ee-
=31	=31	=31
8B-]	16a-	[2ddn
.	16g	.
16A-	16f	.
16G	16g	.
16F	16a-	.
16E-	16cc	.
16Dn	16b-	.
16C	16a-	.
=32	=32	=32
8BBn	[2g	16ddn]
.	.	16cc
8Dn	.	16bn
.	.	16cc
8BB	.	16ddn
.	.	16ff
8GG	.	16ee-
.	.	16dd
=33	=33	=33
16C	8g]	8ee-
16E-	.	.
16G	8g	8ee-
16c	.	.
16G	8g	[4ee-
16E-	.	.
16C	8ee-	.
16E-	.	.
=34	=34	=34
8AA-	16f	2ee-]
.	16g	.
8C	16a-	.
.	16g	.
8AA-	16f	.
.	16g	.
8FF	16a-	.
.	16g	.
=35	=35	=35
16BB-	8f	8ddn
16Dn	.	.
16F	8f	8dd
16B-	.	.
16F	8f	[4dd
16D	.	.
16BB-	8ddn	.
16D	.	.
=36	=36	=36
8GG	16e-	2dd]
.	16f	.
8BB-	16g	.
.	16f	.
8GG	16e-	.
.	16f	.
8EE-	16g	.
.	16f	.
=37	=37	=37
16AA-	8e-	8cc
16BB-	.	.
16C	8e-	8cc
16BB-	.	.
16AA-	8e-	8cc
16GG	.	.
16FF	[8a-	8ff
16EE-	.	.
=38	=38	=38
8DDn	8.a-]	16bn
.	.	16cc
8C	.	[8ddn
.	16a-	.
8BBn	16g	4dd]
.	16f	.
8GG	16e-	.
.	16dn	.
=39	=39	=39
8C	8.e-	16r
.	.	16g
8AA-	.	[8cc
.	16e-	.
8FF	8dn	16cc]
.	.	8cc
8GG	[8f	.
.	.	16bn
=40	=40	=40
4CC	16f]	4cc
.	16f	.
.	16en	.
.	16dn	.
8r	16e	8r
.	[8.g	.
8c	.	16cc
.	.	16b-
=41	=41	=41
8F	16g]	4a-
.	16g	.
8F	16f	.
.	16en	.
8F	4f	16r
.	.	16a-
16d-	.	16b-
16B-	.	[16dd-
=42	=42	=42
8En	4g	16dd-]
.	.	16dd-
8E	.	16cc
.	.	16b-
16E	8r	[4gg
16F	.	.
16G	8een	.
16A-	.	.
=43	=43	=43
16B-	8dd-	4.gg]
16A-	.	.
16G	8b-	.
16A-	.	.
16B-	4g	.
16d-	.	.
16c	.	8een
16B-	.	.
=44	=44	=44
16A-	16r	8ff
16G	16b-	.
16F	16a-	8r
16G	16g	.
16A-	16f	4r
16B-	16g	.
16c	16a-	.
16d-	16b-	.
=45	=45	=45
16e-	8cc	4r
16d-	.	.
16c	8ee-	.
16d-	.	.
16e-	[4gg-	8r
16g-	.	.
16f	.	8aan
16e-	.	.
=46	=46	=46
16d-	8gg-]	8bb-
16c	.	.
16B-	8an	8ee-
16c	.	.
16d-	8b-	8dd-
16e-	.	.
16f	8dd-	[8bb-
16gn	.	.
=47	=47	=47
16a-	8cc	8bb-]
16b-	.	.
16a-	8r	16ccc
16g	.	16bb-
16f	4r	16aa-
16e-	.	16gg
16d-	.	16ff
16c	.	16een
=48	=48	=48
16d-	8r	[2ff
16e-	.	.
16d-	8a-	.
16c	.	.
16B-	8dd-	.
16A-	.	.
16G	8cc	.
16F	.	.
=49	=49	=49
16G	8b-	8ff]
16A-	.	.
16G	8r	16bb-
16F	.	16aa-
16En	4r	16gg
16Dn	.	16ff
16C	.	16een
16BBn	.	16ddn
=50	=50	=50
8C	8r	16een
.	.	16ff
8C	16G	16ee
.	16A-	16ddn
8C	8B-	16cc
.	.	16b-
8r	8c	16a-
.	.	16g
=51	=51	=51
8C	8F	16a-
.	.	16f
8C	8F	16a-
.	.	16cc
8C	8F	16ff
.	.	16cc
8r	16d-	16b-
.	16B-	16a-
=52	=52	=52
8C	8En	16b-
.	.	16g
8C	8E	16b-
.	.	16een
8C	16E	16gg
.	16F	16ff
8r	16G	16ee
.	16A-	16ddn
=53	=53	=53
*	*	*strophe
*	*	*^
*	*	*S/sic	*S/ossia
2r	16B-	16ccxx	16eexx
.	16A-	16ddnxx	16ccxx
*	*	*S/fin	*S/fin
*	*	*v	*v
*	*	*S-
.	16G	16een
.	16A-	16gg
.	16B-	16ccc
.	16d-	16bb-
.	16c	16aa-
.	16B-	16gg
=54	=54	=54
[2D-	8A-	16ff
.	.	16gg-
.	8An	16ff
.	.	16ee-
.	8B-	16dd-
.	.	16cc
.	8c	16b-
.	.	16an
=55	=55	=55
16D-]	8d-	8b-
16E-	.	.
16D-	8r	8f
16C	.	.
16BB-	8r	[4dd-
16AA-	.	.
16GG-	16b-	.
16FF	16a-	.
=56	=56	=56
8EE-	8g-	16dd-]
.	.	[8.dd-
8EE-	16g-	.
.	16f	.
8EE-	8g-	16dd-]
.	.	[8.dd-
16E-	16g-	.
16C	16f	.
=57	=57	=57
8AAn	8g-	16dd-]
.	.	[8.cc
8AA	16e-	.
.	16d-	.
8AA	8e-	16cc]
.	.	[8.cc
16G-	16e-	.
16E-	16d-	.
=58	=58	=58
8C	[2e-	16cc]
.	.	16b-
8C	.	16an
.	.	16g
8C	.	16a
.	.	16b-
16B-	.	[8cc
16An	.	.
=59	=59	=59
[2B-	16e-]	8cc]
.	16c	.
.	16d-	16b-
.	16f	16an
.	16e-	8b-
.	16d-	.
.	16c	8dd-
.	16B-	.
=60	=60	=60
16B-]	8en	8g
16G	.	.
16A-	8f	16cc
16c	.	16ddn
16B-	8g	8een
16A-	.	.
16G	8a-	8ff
16F	.	.
=61	=61	=61
16En	8b-	8gg
16F	.	.
16G	16b-	8ff
16A-	16a-	.
16G	[4b-	8een
16F	.	.
16En	.	8ff
16Dn	.	.
=62	=62	=62
8C	16b-]	[4gg
.	16een	.
8C	16dd-	.
.	16cc	.
8C	[4b-	16gg]
.	.	16ff
16B-	.	16een
16G	.	16ff
=63	=63	=63
8En	16b-]	[4gg
.	16een	.
8E	16dd-	.
.	16cc	.
8E	4b-	16gg]
.	.	16ff
16d-	.	16een
16B-	.	16ff
=64	=64	=64
8G	4r	16bb-
.	.	16ff
8G	.	16een
.	.	16ddn
8G	[4b-	16ee
.	.	16ff
16f	.	[8gg
16en	.	.
=65	=65	=65
[2f	16b-]	8gg]
.	16g	.
.	16a-	16ff
.	16dd-	16een
.	16cc	8ff
.	16b-	.
.	16a-	8gg
.	16g	.
=66	=66	=66
16f]	8f	8aa-
16en	.	.
16f	8cc	8aa-
16g	.	.
16f	8cc	[4aa-
16e-	.	.
16d-	8aa-	.
16c	.	.
=67	=67	=67
8d-	16b-	2aa-]
.	16cc	.
8f	16dd-	.
.	16cc	.
8d-	16b-	.
.	16cc	.
8B-	16dd-	.
.	16cc	.
=68	=68	=68
16e-	8b-	8gg
16d-	.	.
16e-	8b-	8gg
16f	.	.
16e-	8b-	[4gg
16d-	.	.
16c	8gg	.
16B-	.	.
=69	=69	=69
8c	16a-	2gg]
.	16b-	.
8e-	16cc	.
.	16b-	.
8c	16a-	.
.	16b-	.
8A-	16cc	.
.	16b-	.
=70	=70	=70
16d-	8a-	4ff
16e-	.	.
16d-	8a-	.
16c	.	.
16B-	[4dd-	8r
16A-	.	.
16G	.	8ff
16F	.	.
=71	=71	=71
16G	8dd-]	4ee-
16B-	.	.
16An	16cc	.
16G	16b-	.
16F	8an	8r
16E-	.	.
16D-	8r	8ff
16C	.	.
=72	=72	=72
4D-	16r	8b-
.	16F	.
.	16G	8b-
.	16An	.
16r	8B-	8b-
16D-	.	.
16E-	8r	16gg-
16F	.	16ee-
=73	=73	=73
8G-	16r	8an
.	16c	.
8r	16e-	8a
.	16d-	.
4r	16c	16a
.	16B-	16b-
.	16An	16cc
.	16Gn	16dd-
=74	=74	=74
16r	16F	16ee-
16B-	16r	16dd-
16An	8r	16cc
16G	.	16dd-
16F	8r	16ee-
16E-	.	16gg-
16D-	8cc	16ff
16C	.	16ee-
=75	=75	=75
16BB-	8f	8dd-
16C	.	.
16D-	8f	8dd-
16C	.	.
16BB-	8f	8dd-
16AA-	.	.
16GG	16dd-	8r
16FF	16b-	.
=76	=76	=76
16GG	8en	8dd-
16AA-	.	.
16BB-	8e	8dd-
16AA-	.	.
16GG	16e	8dd-
16FF	16f	.
16EEn	16g	8r
16DDn	16a-	.
=77	=77	=77
8CC	16b-	8en
.	16a-	.
8EEn	16g	8r
.	16a-	.
8GG	16b-	8r
.	16dd-	.
[8C	16cc	8een
.	16b-	.
=78	=78	=78
16C]	8a-	8ff
16FF	.	.
16AA-	8a-	8cc
16C	.	.
16F	[4a-	8cc
16A-	.	.
16G	.	8aa-
16F	.	.
=79	=79	=79
8d-	2a-]	16b-
.	.	16cc
8B-	.	16dd-
.	.	16cc
8G	.	16b-
.	.	16cc
8F	.	16dd-
.	.	16cc
=80	=80	=80
16CC	8g	8b-
16EEn	.	.
16GG	8g	8b-
16C	.	.
16En	[4g	8b-
16G	.	.
16F	.	8gg
16E	.	.
=81	=81	=81
8c	2g]	16a-
.	.	16b-
8A-	.	16cc
.	.	16b-
8F	.	16a-
.	.	16b-
8En	.	16cc
.	.	16b-
=82	=82	=82
16CC	8f	8a-
16FF	.	.
16AA-	8f	8a-
16C	.	.
16F	[4f	8a-
16A-	.	.
16G	.	8ff
16F	.	.
=83	=83	=83
8B-	8f]	16g
.	.	16a-
8G	8en	16b-
.	.	16a-
8En	8r	16g
.	.	16dd-
8C	8e-	16cc
.	.	16b-
=84	=84	=84
8D-	4f	8.a-
8BB-	.	.
.	.	16g
8C	4en	8.g
8CC	.	.
.	.	16f
=85	=85	=85
4.FF;	4.f;	4.f;
==	==	==
*-	*-	*-
!!!CDT: 1685/3/-1750/7/28
!!!OCY: Deutschland
!!!PPP: Leipzig
!!!ODT: 1738//-1742//
!!!PDT: 1739//-1742//
!!!AFR: fuga; fugue
!!!AST: polyphony
!!!AMT: simple duple
!!!SCA: Bach-Werke-Verzeichnis
!!!YOR: Bach Gesellschaft
!!!SMS: British Library, various
!!!AIN: cemba; clavi
!!!EEV: 1.0
!!!RDT: 1986 December 4
!!!YER: 1994 August 10
!!!EFL: 36/48
!!!VTS: 3587346605
